; generated by Slic3r 1.2.9 on 2015-11-05 at 13:33:43

; external perimeters extrusion width = 0.50mm
; perimeters extrusion width = 0.85mm
; infill extrusion width = 1.02mm
; solid infill extrusion width = 0.85mm
; top infill extrusion width = 0.85mm

M190 S80 ; set bed temperature
M104 S220 ; set temperature
G28 ; home all axes
G1 Z5 F5000 ; lift nozzle

M109 S220 ; wait for temperature to be reached
G21 ; set units to millimeters
G90 ; use absolute coordinates
M82 ; use absolute distances for extrusion
G92 E0
G1 Z0.300 F7800.000
G1 E-6.50000 F6600.00000
G92 E0
G1 Z0.350 F7800.000
G1 X15.638 Y10.464 F7800.000
G1 Z0.300 F7800.000
G1 E6.50000 F6600.00000
G1 X15.885 Y10.108 E6.53141 F1800.000
G1 X16.174 Y9.743 E6.56516
G1 X16.695 Y9.206 E6.61937
G1 X17.031 Y8.918 E6.65148
G1 X17.388 Y8.658 E6.68347
G1 X17.730 Y8.447 E6.71260
G1 X18.087 Y8.262 E6.74180
G1 X18.592 Y8.050 E6.78149
G1 X18.975 Y7.923 E6.81071
G1 X19.368 Y7.824 E6.84011
G1 X19.919 Y7.730 E6.88065
G1 X20.336 Y7.690 E6.91095
G1 X20.974 Y7.680 E6.95721
G1 X21.704 Y7.726 E7.01027
G1 X22.316 Y7.826 E7.05520 F1800.000
G1 X22.980 Y8.013 E7.10522
G1 X23.651 Y8.283 E7.15766
G1 X24.171 Y8.541 E7.19970
G1 X24.672 Y8.839 E7.24197
G1 X25.218 Y9.237 E7.29100
G1 X26.750 Y10.475 E7.43371
G1 X26.750 Y8.212 E7.59774
G1 X29.361 Y8.212 E7.78701
G1 X29.361 Y34.144 E9.66678
G1 X26.750 Y34.144 E9.85605
G1 X26.750 Y25.722 E10.46657
G1 X25.319 Y26.448 E10.58290
G1 X24.592 Y26.747 E10.63983
G1 X24.201 Y26.879 E10.66975
G1 X23.715 Y27.008 E10.70623
G1 X23.291 Y27.091 E10.73755
G1 X22.838 Y27.152 E10.77067
G1 X22.249 Y27.195 E10.81351
G1 X21.738 Y27.207 E10.85055
G1 X21.250 Y27.190 E10.88596
G1 X20.774 Y27.138 E10.92063
G1 X19.999 Y26.982 E10.97792
G1 X19.543 Y26.845 E11.01250
G1 X19.122 Y26.686 E11.04511
G1 X18.707 Y26.496 E11.07820
G1 X18.307 Y26.284 E11.11100
G1 X17.662 Y25.868 E11.16663
G1 X17.430 Y25.698 E11.18744
G1 X16.970 Y25.307 E11.23122
G1 X16.650 Y24.994 E11.26372
G1 X16.348 Y24.660 E11.29630
G1 X15.911 Y24.083 E11.34877
G1 X15.606 Y23.621 E11.38894
G1 X15.325 Y23.134 E11.42969
G1 X15.067 Y22.624 E11.47115
G1 X14.851 Y22.136 E11.50977
G1 X14.528 Y21.265 E11.57711
G1 X14.372 Y20.722 E11.61810
G1 X14.242 Y20.146 E11.66088
G1 X14.139 Y19.540 E11.70543
G1 X14.063 Y18.905 E11.75181
G1 X14.002 Y18.002 E11.81742
G1 X13.988 Y17.299 E11.86837
G1 X14.025 Y16.056 E11.95855
G1 X14.084 Y15.348 E12.01001
G1 X14.164 Y14.695 E12.05774
G1 X14.274 Y14.044 E12.10560
G1 X14.393 Y13.498 E12.14607
G1 X14.532 Y12.976 E12.18522
G1 X14.748 Y12.306 E12.23628
G1 X14.926 Y11.841 E12.27234
G1 X15.120 Y11.402 E12.30712
G1 X15.408 Y10.846 E12.35259
G1 X15.600 Y10.529 E12.37943
G1 X16.071 Y10.490 F7800.000
G1 E5.87943 F6600.00000
G92 E0
G1 Z0.350 F7800.000
G1 X28.825 Y13.526 F7800.000
G1 Z0.300 F7800.000
G1 E6.50000 F6600.00000
G1 X28.825 Y33.608 E7.95572 F1800.000
G1 X27.285 Y33.608 E8.06734
G1 X27.285 Y24.849 E8.70231
G1 X25.096 Y25.961 E8.88034
G1 X24.405 Y26.245 E8.93447
G1 X24.047 Y26.366 E8.96188
G1 X23.594 Y26.486 E8.99581
G1 X23.204 Y26.563 E9.02464
G1 X22.783 Y26.618 E9.05542
G1 X22.223 Y26.660 E9.09616
G1 X21.741 Y26.671 E9.13107
G1 X21.288 Y26.655 E9.16392
G1 X20.856 Y26.608 E9.19543
G1 X20.130 Y26.462 E9.24915
G1 X19.715 Y26.337 E9.28055
G1 X19.328 Y26.191 E9.31052
G1 X18.944 Y26.016 E9.34114
G1 X18.579 Y25.821 E9.37113
G1 X17.762 Y25.278 E9.44224
G1 X17.331 Y24.911 E9.48323
G1 X17.036 Y24.623 E9.51318
G1 X16.761 Y24.319 E9.54287
G1 X16.349 Y23.774 E9.59239
G1 X16.062 Y23.339 E9.63018
G1 X15.796 Y22.879 E9.66869
G1 X15.551 Y22.394 E9.70804
G1 X15.348 Y21.935 E9.74447
G1 X15.038 Y21.098 E9.80915
G1 X14.891 Y20.589 E9.84756
G1 X14.768 Y20.042 E9.88819
G1 X14.669 Y19.464 E9.93074
G1 X14.596 Y18.855 E9.97515
G1 X14.537 Y17.979 E10.03883
G1 X14.524 Y17.302 E10.08788
G1 X14.560 Y16.086 E10.17608
G1 X14.617 Y15.403 E10.22575
G1 X14.694 Y14.772 E10.27184
G1 X14.800 Y14.145 E10.31790
G1 X14.914 Y13.624 E10.35656
G1 X15.046 Y13.128 E10.39384
G1 X15.253 Y12.484 E10.44286
G1 X15.603 Y11.634 E10.50946
G1 X15.876 Y11.107 E10.55245
G1 X16.315 Y10.427 E10.61118
G1 X16.577 Y10.097 E10.64172
G1 X17.062 Y9.596 E10.69224
G1 X17.363 Y9.338 E10.72098
G1 X17.686 Y9.103 E10.74992
G1 X17.994 Y8.914 E10.77613
G1 X18.315 Y8.747 E10.80236
G1 X18.780 Y8.552 E10.83893
G1 X19.125 Y8.438 E10.86524
G1 X19.479 Y8.348 E10.89174
G1 X19.990 Y8.261 E10.92929
G1 X20.365 Y8.225 E10.95662
G1 X20.961 Y8.216 E10.99983
G1 X21.644 Y8.258 E11.04944
G1 X22.200 Y8.349 E11.09024 F1800.000
G1 X22.807 Y8.520 E11.13596
G1 X23.432 Y8.772 E11.18479
G1 X23.914 Y9.012 E11.22385
G1 X24.376 Y9.287 E11.26283
G1 X24.892 Y9.662 E11.30908
G1 X27.285 Y11.596 E11.53210
G1 X27.285 Y8.747 E11.73858
G1 X28.825 Y8.747 E11.85020
G1 X28.825 Y13.451 E12.19116
G1 X26.750 Y13.451 F7800.000
G1 X26.750 Y23.747 E12.93752 F1800.000
G1 X26.064 Y24.063 E12.99223
G1 X25.319 Y24.360 E13.05041
G1 X24.854 Y24.514 E13.08585
G1 X24.280 Y24.661 E13.12885
G1 X23.502 Y24.791 E13.18602
G1 X22.897 Y24.846 E13.23005
G1 X22.271 Y24.864 E13.27546
G1 X21.863 Y24.851 E13.30502
G1 X21.468 Y24.812 E13.33381
G1 X20.971 Y24.726 E13.37040
G1 X20.494 Y24.595 E13.40626
G1 X20.044 Y24.419 E13.44130
G1 X19.713 Y24.255 E13.46803
G1 X19.397 Y24.065 E13.49477
G1 X19.007 Y23.778 E13.52988
G1 X18.518 Y23.317 E13.57858
G1 X18.210 Y22.955 E13.61304
G1 X17.808 Y22.363 E13.66491
G1 X17.469 Y21.701 E13.71882
G1 X17.274 Y21.214 E13.75683
G1 X17.110 Y20.697 E13.79614
G1 X16.946 Y20.023 E13.84647
G1 X16.786 Y18.993 E13.92202
G1 X16.716 Y18.037 E13.99147
G1 X16.706 Y16.938 E14.07115
G1 X16.750 Y15.994 E14.13966
G1 X16.819 Y15.286 E14.19121
G1 X16.943 Y14.490 E14.24960
G1 X17.048 Y14.002 E14.28581
G1 X17.173 Y13.541 E14.32046
G1 X17.402 Y12.884 E14.37090
G1 X17.714 Y12.225 E14.42376
G1 X18.025 Y11.733 E14.46593
G1 X18.270 Y11.427 E14.49437
G1 X18.469 Y11.218 E14.51527
G1 X18.891 Y10.867 E14.55507
G1 X19.363 Y10.584 E14.59492
G1 X19.625 Y10.464 E14.61586
G1 X19.997 Y10.331 E14.64445
G1 X20.570 Y10.197 E14.68711
G1 X21.294 Y10.128 E14.73986 F1800.000
G1 X21.919 Y10.137 E14.78513
G1 X22.462 Y10.201 E14.82477
G1 X22.875 Y10.283 E14.85530
G1 X23.287 Y10.395 E14.88625
G1 X23.813 Y10.577 E14.92657
G1 X24.587 Y10.929 E14.98824
G1 X25.335 Y11.354 E15.05064
G1 X25.945 Y11.764 E15.10387
G1 X26.750 Y12.397 E15.17812
G1 X26.750 Y13.376 E15.24906
G1 X27.183 Y13.701 F7800.000
G1 X27.285 Y13.376 F7800.000
G1 X27.285 Y24.091 E16.02574 F1800.000
G1 X26.275 Y24.555 E16.10633
G1 X25.502 Y24.864 E16.16668
G1 X25.005 Y25.028 E16.20460
G1 X24.391 Y25.186 E16.25059
G1 X23.570 Y25.323 E16.31090
G1 X22.929 Y25.381 E16.35757
G1 X22.270 Y25.400 E16.40535
G1 X21.829 Y25.386 E16.43738
G1 X21.396 Y25.343 E16.46888
G1 X20.854 Y25.250 E16.50879
G1 X20.325 Y25.104 E16.54856
G1 X19.827 Y24.909 E16.58730
G1 X19.456 Y24.725 E16.61733
G1 X19.100 Y24.511 E16.64746
G1 X18.663 Y24.190 E16.68671
G1 X18.129 Y23.687 E16.73994
G1 X17.783 Y23.280 E16.77863
G1 X17.346 Y22.637 E16.83499
G1 X16.981 Y21.923 E16.89312
G1 X16.770 Y21.395 E16.93435
G1 X16.594 Y20.842 E16.97641
G1 X16.420 Y20.127 E17.02971
G1 X16.253 Y19.054 E17.10848
G1 X16.181 Y18.059 E17.18075
G1 X16.170 Y16.928 E17.26275
G1 X16.216 Y15.956 E17.33331
G1 X16.287 Y15.219 E17.38697
G1 X16.416 Y14.393 E17.44758
G1 X16.527 Y13.876 E17.48594
G1 X16.661 Y13.382 E17.52300
G1 X16.906 Y12.680 E17.57687
G1 X17.244 Y11.966 E17.63416
G1 X17.588 Y11.421 E17.68088
G1 X17.867 Y11.073 E17.71321
G1 X18.104 Y10.826 E17.73801
G1 X18.580 Y10.429 E17.78298
G1 X19.113 Y10.109 E17.82799
G1 X19.424 Y9.967 E17.85278
G1 X19.845 Y9.817 E17.88522
G1 X20.483 Y9.667 E17.93270
G1 X21.273 Y9.592 E17.99022 F1800.000
G1 X21.954 Y9.602 E18.03961
G1 X22.545 Y9.671 E18.08277
G1 X22.997 Y9.761 E18.11617
G1 X23.445 Y9.882 E18.14979
G1 X24.012 Y10.079 E18.19326
G1 X24.831 Y10.451 E18.25849
G1 X25.617 Y10.899 E18.32408
G1 X26.261 Y11.330 E18.38024
G1 X27.285 Y12.138 E18.47481
G1 X27.285 Y13.301 E18.55915
G1 X25.440 Y10.470 F7800.000
G1 X24.978 Y10.156 E18.59963 F1800.000
G1 X24.229 Y9.708 E18.66289
G1 X24.233 Y9.701 F7800.000
G1 X23.584 Y9.404 E18.77252 F1800.000
G1 X23.130 Y9.235 E18.84693
G1 X22.650 Y9.092 E18.92398
G1 X22.061 Y8.973 E19.01625
G1 X21.441 Y8.914 E19.11207
G1 X21.108 Y8.832 F7800.000
G1 X20.841 Y8.565 E19.13980 F1800.000
G1 X20.805 Y9.297 E19.19357
G1 X20.099 Y8.590 E19.26691
G1 X19.435 Y8.694 E19.31625
G1 X20.152 Y9.411 E19.39069
G1 X19.557 Y9.583 E19.43615
G1 X18.841 Y8.867 E19.51051
G1 X18.306 Y9.100 E19.55331
G1 X19.017 Y9.811 E19.62712
G1 X18.537 Y10.098 E19.66819
G1 X17.820 Y9.381 E19.74266
G1 X17.393 Y9.720 E19.78275
G1 X18.105 Y10.432 E19.85666
G1 X17.708 Y10.803 E19.89651
G1 X17.009 Y10.104 E19.96909
G1 X16.641 Y10.503 E20.00895
G1 X17.360 Y11.222 E20.08362
G1 X17.058 Y11.688 E20.12435
G1 X16.333 Y10.962 E20.19970
G1 X16.049 Y11.445 E20.24085
G1 X16.794 Y12.190 E20.31821
G1 X16.556 Y12.720 E20.36082
G1 X15.799 Y11.963 E20.43941
G1 X15.580 Y12.511 E20.48277
G1 X16.358 Y13.288 E20.56346
G1 X16.190 Y13.888 E20.60916
G1 X15.393 Y13.091 E20.69185
G1 X15.232 Y13.698 E20.73791
G1 X16.059 Y14.525 E20.82376
G1 X15.956 Y15.188 E20.87307
G1 X15.104 Y14.336 E20.96151
G1 X15.004 Y15.004 E21.01106
G1 X15.883 Y15.883 E21.10233
G1 X15.842 Y16.609 E21.15570
G1 X14.933 Y15.700 E21.25005
G1 X14.895 Y16.429 E21.30368
G1 X15.825 Y17.359 E21.40021
G1 X15.832 Y18.133 E21.45706
G1 X14.873 Y17.174 E21.55662
G1 X14.893 Y17.962 E21.61445
G1 X15.888 Y18.957 E21.71778
G1 X16.004 Y19.840 E21.78315
G1 X14.954 Y18.790 E21.89217
G1 X15.081 Y19.684 E21.95852
G1 X16.194 Y20.797 E22.07401
G1 X15.320 Y20.691 E22.13860
G1 X16.551 Y21.921 E22.26633
G1 X15.783 Y21.921 E22.32266
G1 X17.514 Y23.652 E22.50235
G1 X16.999 Y23.904 E22.54444
G1 X17.904 Y24.809 E22.63841
G1 X18.409 Y24.547 E22.68019
G1 X18.757 Y24.895 E22.71631
G1 X18.934 Y25.245 F7800.000
G1 X19.593 Y25.556 E22.82821 F1800.000
G1 X20.295 Y25.801 E22.94251
G1 X20.958 Y25.947 E23.04689
G1 X21.336 Y25.998 E23.10539
G1 X21.775 Y26.027 E23.17300
G1 X22.720 Y26.004 E23.31833
G1 X23.107 Y25.969 E23.37800
G1 X23.631 Y25.888 E23.45963
G1 X24.484 Y25.674 E23.59473
G1 X25.232 Y25.412 E23.71654
G1 X25.231 Y25.408 F7800.000
G1 X26.415 Y24.887 E23.81035 F1800.000
G1 X27.553 Y24.336 E23.90199
G1 X27.634 Y32.993 F7800.000
G1 X27.901 Y33.260 E23.92965 F1800.000
G1 X28.477 Y33.071 E23.97400
G1 X27.634 Y32.228 E24.06124
G1 X27.634 Y31.463 E24.11721
G1 X28.477 Y32.306 E24.20446
G1 X28.477 Y31.541 E24.26043
G1 X27.634 Y30.698 E24.34767
G1 X27.634 Y29.934 E24.40364
G1 X28.477 Y30.776 E24.49089
G1 X28.477 Y30.012 E24.54686
G1 X27.634 Y29.169 E24.63410
G1 X27.634 Y28.404 E24.69007
G1 X28.477 Y29.247 E24.77732
G1 X28.477 Y28.482 E24.83329
G1 X27.634 Y27.639 E24.92054
G1 X27.634 Y26.874 E24.97651
G1 X28.477 Y27.717 E25.06375
G1 X28.477 Y26.953 E25.11972
G1 X27.634 Y26.110 E25.20697
G1 X27.634 Y25.345 E25.26294
G1 X28.477 Y26.188 E25.35018
G1 X28.477 Y25.423 E25.40615
G1 X27.900 Y24.847 E25.46583
G1 X28.477 Y24.658 E25.51022
G1 X27.870 Y24.052 E25.57302
G1 X28.477 Y23.894 E25.61891
G1 X27.634 Y23.051 E25.70615
G1 X27.634 Y22.286 E25.76212
G1 X28.477 Y23.129 E25.84937
G1 X28.477 Y22.364 E25.90534
G1 X27.634 Y21.521 E25.99259
G1 X27.634 Y20.756 E26.04856
G1 X28.477 Y21.599 E26.13580
G1 X28.477 Y20.835 E26.19177
G1 X27.634 Y19.992 E26.27902
G1 X27.634 Y19.227 E26.33499
G1 X28.477 Y20.070 E26.42223
G1 X28.477 Y19.305 E26.47820
G1 X27.634 Y18.462 E26.56545
G1 X27.634 Y17.697 E26.62142
G1 X28.477 Y18.540 E26.70867
G1 X28.477 Y17.775 E26.76464
G1 X27.634 Y16.933 E26.85188
G1 X27.634 Y16.168 E26.90785
G1 X28.477 Y17.011 E26.99510
G1 X28.477 Y16.246 E27.05107
G1 X27.634 Y15.403 E27.13831
G1 X27.634 Y14.638 E27.19428
G1 X28.477 Y15.481 E27.28153
G1 X28.477 Y14.716 E27.33750
G1 X27.634 Y13.873 E27.42475
G1 X27.634 Y13.109 E27.48072
G1 X28.477 Y13.952 E27.56796
G1 X28.477 Y13.187 E27.62393
G1 X27.634 Y12.344 E27.71118
G1 X27.634 Y11.579 E27.76715
G1 X28.477 Y12.422 E27.85439
G1 X28.477 Y11.657 E27.91036
G1 X27.634 Y10.814 E27.99761
G1 X27.634 Y10.050 E28.05358
G1 X28.477 Y10.893 E28.14083
G1 X28.477 Y10.128 E28.19680
G1 X27.634 Y9.285 E28.28404
G1 X28.210 Y9.096 E28.32839
G1 X28.477 Y9.363 E28.35605
G1 E21.85605 F6600.00000
G92 E0
G1 Z0.350 F7800.000
G1 X10.986 Y13.766 F7800.000
G1 Z0.300 F7800.000
G1 E6.50000 F6600.00000
G1 X11.189 Y14.689 E6.56853 F1800.000
G1 X11.304 Y15.498 E6.62773
G1 X11.364 Y16.122 E6.67316
G1 X11.400 Y16.768 E6.72008
G1 X11.405 Y17.949 E6.80568
G1 X11.327 Y19.181 E6.89521
G1 X11.205 Y20.087 E6.96147
G1 X10.973 Y21.169 E7.04164
G1 X10.730 Y21.958 E7.10146
G1 X10.508 Y22.530 E7.14602
G1 X10.349 Y22.881 E7.17388
G1 X9.985 Y23.556 E7.22954
G1 X9.725 Y23.962 E7.26449
G1 X9.442 Y24.347 E7.29908
G1 X9.020 Y24.838 E7.34602
G1 X8.693 Y25.172 E7.37990
G1 X8.350 Y25.480 E7.41331
G1 X7.993 Y25.762 E7.44633
G1 X7.621 Y26.019 E7.47909
G1 X7.234 Y26.250 E7.51176
G1 X6.833 Y26.455 E7.54440
G1 X6.262 Y26.697 E7.58937
G1 X5.826 Y26.844 E7.62273
G1 X5.374 Y26.966 E7.65665
G1 X4.731 Y27.092 E7.70416
G1 X4.241 Y27.156 E7.73994
G1 X3.737 Y27.194 E7.77659
G1 X2.823 Y27.200 E7.84282
G1 X1.879 Y27.118 E7.91151
G1 X0.989 Y26.946 E7.97725
G1 X0.323 Y26.746 E8.02762
G1 X-0.163 Y26.555 E8.06545
G1 X-0.467 Y26.415 E8.08976
G1 X-1.207 Y25.994 E8.15148
G1 X-1.864 Y25.510 E8.21063
G1 X-2.218 Y25.199 E8.24477
G1 X-2.559 Y24.859 E8.27968
G1 X-2.996 Y24.359 E8.32782
G1 X-3.290 Y23.964 E8.36348
G1 X-3.561 Y23.548 E8.39950
G1 X-3.892 Y22.948 E8.44917
G1 X-4.110 Y22.480 E8.48656
G1 X-4.303 Y21.990 E8.52478
G1 X-4.528 Y21.289 E8.57818
G1 X-4.668 Y20.745 E8.61886
G1 X-4.784 Y20.179 E8.66076
G1 X-4.901 Y19.374 E8.71970
G1 X-4.962 Y18.754 E8.76489
G1 X-4.998 Y18.111 E8.81152
G1 X-5.004 Y16.950 E8.89567
G1 X-4.927 Y15.752 E8.98273
G1 X-4.808 Y14.866 E9.04751
G1 X-4.580 Y13.803 E9.12631
G1 X-4.342 Y13.023 E9.18548
G1 X-3.968 Y12.102 E9.25751
G1 X-3.611 Y11.422 E9.31320
G1 X-3.355 Y11.010 E9.34838
G1 X-3.077 Y10.617 E9.38328
G1 X-2.662 Y10.112 E9.43064
G1 X-2.338 Y9.769 E9.46479
G1 X-2.002 Y9.455 E9.49817
G1 X-1.404 Y8.992 E9.55298
G1 X-0.741 Y8.584 E9.60943
G1 X-0.056 Y8.263 E9.66426
G1 X0.540 Y8.050 E9.71016
G1 X0.999 Y7.924 E9.74465
G1 X1.478 Y7.824 E9.78008
G1 X1.974 Y7.750 E9.81644
G1 X2.485 Y7.703 E9.85368
G1 X3.419 Y7.680 E9.92135
G1 X4.368 Y7.743 E9.99032
G1 X4.924 Y7.823 E10.03106 F1800.000
G1 X5.800 Y8.030 E10.09626
G1 X6.618 Y8.328 E10.15940
G1 X7.224 Y8.624 E10.20827
G1 X7.665 Y8.889 E10.24561
G1 X8.315 Y9.368 E10.30413
G1 X8.786 Y9.794 E10.35010
G1 X9.117 Y10.139 E10.38476
G1 X9.430 Y10.510 E10.41996
G1 X9.720 Y10.903 E10.45537
G1 X9.987 Y11.317 E10.49109
G1 X10.313 Y11.915 E10.54047
G1 X10.526 Y12.383 E10.57770
G1 X10.716 Y12.873 E10.61585
G1 X10.967 Y13.693 E10.67802
G1 X10.625 Y14.113 F7800.000
G1 E4.17802 F6600.00000
G92 E0
G1 Z0.350 F7800.000
G1 X-4.465 Y17.682 F7800.000
G1 Z0.300 F7800.000
G1 E6.50000 F6600.00000
G1 X-4.468 Y16.966 E6.55185 F1800.000
G1 X-4.394 Y15.805 E6.63622
G1 X-4.280 Y14.958 E6.69813
G1 X-4.061 Y13.938 E6.77379
G1 X-3.835 Y13.197 E6.82995
G1 X-3.486 Y12.336 E6.89730
G1 X-3.146 Y11.688 E6.95032
G1 X-2.908 Y11.306 E6.98296
G1 X-2.651 Y10.942 E7.01528
G1 X-2.260 Y10.466 E7.05990
G1 X-1.961 Y10.149 E7.09149
G1 X-1.654 Y9.864 E7.12184
G1 X-1.098 Y9.433 E7.17281
G1 X-0.486 Y9.056 E7.22498
G1 X0.148 Y8.758 E7.27574
G1 X0.701 Y8.561 E7.31831
G1 X1.125 Y8.445 E7.35015
G1 X1.572 Y8.352 E7.38327
G1 X2.038 Y8.282 E7.41742
G1 X2.517 Y8.238 E7.45225
G1 X3.408 Y8.216 E7.51684
G1 X4.312 Y8.276 E7.58256
G1 X4.833 Y8.351 E7.62068 F1800.000
G1 X5.650 Y8.545 E7.68156
G1 X6.409 Y8.821 E7.74013
G1 X6.962 Y9.092 E7.78475
G1 X7.368 Y9.336 E7.81909
G1 X7.976 Y9.784 E7.87382
G1 X8.412 Y10.178 E7.91646
G1 X8.719 Y10.497 E7.94853
G1 X9.010 Y10.842 E7.98123
G1 X9.279 Y11.207 E8.01410
G1 X9.525 Y11.590 E8.04716
G1 X9.833 Y12.155 E8.09377
G1 X10.032 Y12.591 E8.12850
G1 X10.211 Y13.051 E8.16426
G1 X10.422 Y13.722 E8.21526
G1 X10.552 Y14.239 E8.25391
G1 X10.661 Y14.780 E8.29391
G1 X10.772 Y15.561 E8.35113
G1 X10.864 Y16.784 E8.44001
G1 X10.869 Y17.933 E8.52331
G1 X10.794 Y19.129 E8.61016
G1 X10.677 Y19.995 E8.67354
G1 X10.454 Y21.033 E8.75051
G1 X10.224 Y21.782 E8.80724
G1 X9.869 Y22.643 E8.87476
